packages/core/src/svgs/polyx.svg

<svg width="24" height="24" viewBox="0 0 24 24" fill="none" xmlns="http://www.w3.org/2000/svg">
<g clip-path="url(#clip0_31_16310)">
<path d="M0 0H24V24H0V0Z" fill="#F0F3FA"/>
<path d="M12.7842 11.9999C13.6242 11.9999 14.5714 11.6441 14.5714 10.7141C14.5714 9.81843 13.6628 9.42843 12.7842 9.42843H10.2856V8.57129H12.9171C14.2971 8.57129 15.4285 9.26986 15.4285 10.7141C15.4285 12.1584 14.2414 12.857 12.9171 12.857H11.1428V15.857H10.2856V11.9999H12.7842Z" fill="url(#paint0_linear_31_16310)"/>
<path fill-rule="evenodd" clip-rule="evenodd" d="M12.0001 19.2858C13.9324 19.2858 15.7855 18.5182 17.1518 17.1518C18.5182 15.7855 19.2858 13.9324 19.2858 12.0001C19.2858 10.0678 18.5182 8.21463 17.1518 6.84829C15.7855 5.48196 13.9324 4.71436 12.0001 4.71436C10.0678 4.71436 8.21463 5.48196 6.84829 6.84829C5.48196 8.21463 4.71436 10.0678 4.71436 12.0001C4.71436 13.9324 5.48196 15.7855 6.84829 17.1518C8.21463 18.5182 10.0678 19.2858 12.0001 19.2858ZM12.0001 18.4286C13.705 18.4286 15.3402 17.7513 16.5458 16.5458C17.7513 15.3402 18.4286 13.705 18.4286 12.0001C18.4286 10.2951 17.7513 8.65997 16.5458 7.45438C15.3402 6.24879 13.705 5.5715 12.0001 5.5715C10.2951 5.5715 8.65997 6.24879 7.45438 7.45438C6.24879 8.65997 5.5715 10.2951 5.5715 12.0001C5.5715 13.705 6.24879 15.3402 7.45438 16.5458C8.65997 17.7513 10.2951 18.4286 12.0001 18.4286Z" fill="url(#paint1_linear_31_16310)"/>
</g>
<defs>
<linearGradient id="paint0_linear_31_16310" x1="40.5214" y1="8.42986" x2="40.4914" y2="22.4741" gradientUnits="userSpaceOnUse">
<stop stop-color="#FF2E72"/>
<stop offset="0.93" stop-color="#4A125E"/>
</linearGradient>
<linearGradient id="paint1_linear_31_16310" x1="12.0001" y1="4.71436" x2="12.0001" y2="19.2858" gradientUnits="userSpaceOnUse">
<stop stop-color="#FF2E72"/>
<stop offset="1" stop-color="#631661"/>
</linearGradient>
<clipPath id="clip0_31_16310">
<rect width="24" height="24" fill="white"/>
</clipPath>
</defs>
</svg>

<svg xmlns="http://www.w3.org/2000/svg" width="24" height="24" fill="none" viewBox="0 0 24 24"><g clip-path="url(#a)"><path fill="#F0F3FA" d="M0 0h24v24H0z"/><path fill="url(#b)" d="M12.784 12c.84 0 1.787-.356 1.787-1.286 0-.896-.908-1.286-1.787-1.286h-2.498v-.857h2.631c1.38 0 2.512.699 2.512 2.143s-1.188 2.143-2.512 2.143h-1.774v3h-.857V12z"/><path fill="url(#c)" fill-rule="evenodd" d="M12 19.286a7.285 7.285 0 1 0 0-14.57 7.285 7.285 0 0 0 0 14.57m0-.857A6.429 6.429 0 1 0 12 5.57a6.429 6.429 0 0 0 0 12.858" clip-rule="evenodd"/></g><defs><linearGradient id="b" x1="40.521" x2="40.491" y1="8.43" y2="22.474" gradientUnits="userSpaceOnUse"><stop stop-color="#FF2E72"/><stop offset=".93" stop-color="#4A125E"/></linearGradient><linearGradient id="c" x1="12" x2="12" y1="4.714" y2="19.286" gradientUnits="userSpaceOnUse"><stop stop-color="#FF2E72"/><stop offset="1" stop-color="#631661"/></linearGradient><clipPath id="a"><path fill="#fff" d="M0 0h24v24H0z"/></clipPath></defs></svg>
